X: 32079
T: Penobscot Memory
R: waltz
M: 3/4
K: Gmajor
D2|B6|A=F2G AF|G3A Bc|d2 B2 G2|
ce3- e2|d3 B GB|A6-|A4 D2|
B6|A=F2G AF|G3A Bc|B2 G2 D2|
EG3- G2|D3A BA|G6-|G2 G2 F2||
E4 E2|e3 f ge|fg fe d2-|d2 f2 a2|
g6|g2 f2 e2|d6-|d2 G2 F2|
E4 E2|g4 g2|fd3- d2|e4 B2|
A4 AB|c2 B2 A2|G6-|G4||

